formas-de-pagamento/hiper.svg

<svg enable-background="new 0 0 60 40" height="40" viewBox="0 0 60 40" width="60" xmlns="http://www.w3.org/2000/svg"><switch><foreignObject height="1" requiredExtensions="http://ns.adobe.com/AdobeIllustrator/10.0/" width="1"/><g><path d="m60 35c0 2.75-2.25 5-5 5h-50c-2.75 0-5-2.25-5-5v-30c0-2.75 2.25-5 5-5h50c2.75 0 5 2.25 5 5z" fill="#ff7900"/><g fill="#fff"><path d="m55 0h-50c-2.75 0-5 2.25-5 5v30c0 2.75 2.25 5 5 5h50c2.75 0 5-2.25 5-5v-30c0-2.75-2.25-5-5-5zm0 1c2.206 0 4 1.794 4 4v30c0 2.206-1.794 4-4 4h-50c-2.206 0-4-1.794-4-4v-30c0-2.206 1.794-4 4-4z" opacity=".25"/><path d="m13.893 19.729c0-1.531.003-3.062-.004-4.593-.001-.19.045-.258.246-.254.578.013 1.156.011 1.734.001.187-.004.241.054.239.239-.008 1.07.001 2.14-.008 3.211-.002.203.05.269.261.267 1.039-.011 2.077-.01 3.117-.001.187.002.237-.054.236-.238-.008-1.078 0-2.156-.008-3.233-.001-.179.038-.247.231-.244.586.011 1.171.014 1.757-.001.225-.006.228.102.228.27-.004 2.679-.003 5.359-.003 8.038 0 .406-.007.812.004 1.218.004.157-.052.201-.202.2-.601-.007-1.203-.008-1.804 0-.162.002-.212-.049-.211-.213.007-1.203-.001-2.406.008-3.609.002-.206-.056-.265-.264-.263-1.031.011-2.062.009-3.093.001-.193-.001-.257.057-.255.253.008 1.195-.001 2.39.008 3.585.002.201-.061.249-.251.246-.578-.011-1.156-.011-1.734-.001-.183.003-.234-.054-.233-.239.005-1.546.002-3.093.001-4.64z"/><path d="m28.801 21.691c0 .445.003.82-.002 1.195-.002.132.033.203.183.203.358.002.718.031 1.076.023.583-.011 1.048-.249 1.302-.794.343-.737.359-1.497.054-2.245-.274-.675-.806-.973-1.456-.876-.613.091-1.053.585-1.136 1.278-.049.427-.004.857-.021 1.216zm-.226-3.09c.565-.785 1.322-1.101 2.202-1.136 1.164-.046 2.175.616 2.672 1.707.41.898.449 1.837.311 2.794-.099.686-.344 1.311-.829 1.82-.59.619-1.347.875-2.175.961-.514.054-1.03.025-1.545.03-.448.004-.407-.046-.408.397-.001.688-.005 1.375.003 2.063.002.162-.045.217-.211.214-.578-.009-1.156-.01-1.734.001-.173.003-.227-.041-.225-.22.01-.696.005-1.39.004-2.086 0-.371 0-.367-.365-.39-.551-.033-1.078-.164-1.565-.428-.908-.489-1.355-1.292-1.537-2.276-.08-.434-.078-.87-.078-1.307 0-.977.003-1.953-.003-2.93-.001-.158.037-.219.208-.216.593.01 1.188.011 1.781 0 .179-.003.225.053.224.226-.007 1.141-.016 2.282.002 3.422.009.554.14 1.083.562 1.491.155.15.344.243.548.301.144.041.229.021.228-.172-.008-1.608.014-3.217-.072-4.824-.001-.015-.001-.032-.001-.047.002-.433-.03-.358.361-.362.438-.004.875.007 1.313-.004.184-.005.243.058.246.242.003.223.047.446.083.729z"/></g><path d="m24.199 16.752c-.719.036-1.177-.482-1.169-1.104.009-.648.48-1.098 1.165-1.099.718-.001 1.185.443 1.184 1.125-.002.642-.479 1.078-1.18 1.078z" fill="#ffe701"/><path d="m37.717 20.3c.367 0 .733-.002 1.1.001.109.001.181-.017.17-.152-.077-1.006-.812-1.452-1.64-1.187-.56.18-.795.662-.909 1.208-.029.139.066.131.156.131.374-.001.749-.001 1.123-.001zm.981 1.503c-.679 0-1.359.003-2.038-.002-.167-.001-.243.018-.178.224.201.633.688.895 1.278 1.02.814.171 1.613.035 2.401-.168.15-.039.198-.009.224.128.071.375.141.749.222 1.121.035.165-.05.222-.183.266-.8.265-1.621.374-2.461.357-.754-.014-1.469-.162-2.117-.563-.79-.488-1.235-1.212-1.402-2.11-.179-.967-.108-1.911.352-2.798.599-1.157 1.562-1.759 2.861-1.831.658-.036 1.291.051 1.868.391.656.387 1.063.973 1.285 1.687.215.694.27 1.403.159 2.125-.026.166-.125.151-.233.151-.68.003-1.359.002-2.038.002z" fill="#fff"/><path d="m41.792 21.597c0-.633.005-1.265-.002-1.898-.007-.639-.019-1.279-.042-1.918-.006-.162.046-.196.195-.194.492.008.984.011 1.475-.002.169-.005.218.063.223.209.008.281.018.561.03.842.002.053-.008.125.056.14.072.016.075-.061.098-.107.292-.612.755-1.022 1.419-1.189.246-.061.497-.035.746-.031.131.003.117.103.117.186.002.562-.004 1.125.004 1.686.002.161-.053.207-.206.178-.384-.074-.762-.049-1.122.113-.61.274-.796.794-.798 1.411-.004 1.108-.007 2.218.004 3.326.002.213-.065.262-.265.258-.569-.012-1.14-.011-1.709-.001-.174.003-.226-.048-.225-.225.005-.926.002-1.855.002-2.784z" fill="#fff"/></g></switch></svg>

<?xml version="1.0" encoding="UTF-8"?>
<svg width="60px" height="40px" viewBox="0 0 60 40" version="1.1" xmlns="http://www.w3.org/2000/svg" xmlns:xlink="http://www.w3.org/1999/xlink">
    <!-- Generator: Sketch 52.4 (67378) - http://www.bohemiancoding.com/sketch -->
    <title>Artboard</title>
    <desc>Created with Sketch.</desc>
    <g id="Artboard" stroke="none" stroke-width="1" fill="none" fill-rule="evenodd">
        <g id="hiper">
            <path d="M60,35 C60,37.75 57.75,40 55,40 L5,40 C2.25,40 0,37.75 0,35 L0,5 C0,2.25 2.25,0 5,0 L55,0 C57.75,0 60,2.25 60,5 L60,35 Z" id="Path" fill="#FF7900"></path>
            <path d="M13.893,19.729 C13.893,18.198 13.896,16.667 13.889,15.136 C13.888,14.946 13.934,14.878 14.135,14.882 C14.713,14.895 15.291,14.893 15.869,14.883 C16.056,14.879 16.11,14.937 16.108,15.122 C16.1,16.192 16.109,17.262 16.1,18.333 C16.098,18.536 16.15,18.602 16.361,18.6 C17.4,18.589 18.438,18.59 19.478,18.599 C19.665,18.601 19.715,18.545 19.714,18.361 C19.706,17.283 19.714,16.205 19.706,15.128 C19.705,14.949 19.744,14.881 19.937,14.884 C20.523,14.895 21.108,14.898 21.694,14.883 C21.919,14.877 21.922,14.985 21.922,15.153 C21.918,17.832 21.919,20.512 21.919,23.191 C21.919,23.597 21.912,24.003 21.923,24.409 C21.927,24.566 21.871,24.61 21.721,24.609 C21.12,24.602 20.518,24.601 19.917,24.609 C19.755,24.611 19.705,24.56 19.706,24.396 C19.713,23.193 19.705,21.99 19.714,20.787 C19.716,20.581 19.658,20.522 19.45,20.524 C18.419,20.535 17.388,20.533 16.357,20.525 C16.164,20.524 16.1,20.582 16.102,20.778 C16.11,21.973 16.101,23.168 16.11,24.363 C16.112,24.564 16.049,24.612 15.859,24.609 C15.281,24.598 14.703,24.598 14.125,24.608 C13.942,24.611 13.891,24.554 13.892,24.369 C13.897,22.823 13.894,21.276 13.893,19.729 Z" id="Path" fill="#FFFFFF"></path>
            <path d="M28.801,21.691 C28.801,22.136 28.804,22.511 28.799,22.886 C28.797,23.018 28.832,23.089 28.982,23.089 C29.34,23.091 29.7,23.12 30.058,23.112 C30.641,23.101 31.106,22.863 31.36,22.318 C31.703,21.581 31.719,20.821 31.414,20.073 C31.14,19.398 30.608,19.1 29.958,19.197 C29.345,19.288 28.905,19.782 28.822,20.475 C28.773,20.902 28.818,21.332 28.801,21.691 Z M28.575,18.601 C29.14,17.816 29.897,17.5 30.777,17.465 C31.941,17.419 32.952,18.081 33.449,19.172 C33.859,20.07 33.898,21.009 33.76,21.966 C33.661,22.652 33.416,23.277 32.931,23.786 C32.341,24.405 31.584,24.661 30.756,24.747 C30.242,24.801 29.726,24.772 29.211,24.777 C28.763,24.781 28.804,24.731 28.803,25.174 C28.802,25.862 28.798,26.549 28.806,27.237 C28.808,27.399 28.761,27.454 28.595,27.451 C28.017,27.442 27.439,27.441 26.861,27.452 C26.688,27.455 26.634,27.411 26.636,27.232 C26.646,26.536 26.641,25.842 26.64,25.146 C26.64,24.775 26.64,24.779 26.275,24.756 C25.724,24.723 25.197,24.592 24.71,24.328 C23.802,23.839 23.355,23.036 23.173,22.052 C23.093,21.618 23.095,21.182 23.095,20.745 C23.095,19.768 23.098,18.792 23.092,17.815 C23.091,17.657 23.129,17.596 23.3,17.599 C23.893,17.609 24.488,17.61 25.081,17.599 C25.26,17.596 25.306,17.652 25.305,17.825 C25.298,18.966 25.289,20.107 25.307,21.247 C25.316,21.801 25.447,22.33 25.869,22.738 C26.024,22.888 26.213,22.981 26.417,23.039 C26.561,23.08 26.646,23.06 26.645,22.867 C26.637,21.259 26.659,19.65 26.573,18.043 C26.572,18.028 26.572,18.011 26.572,17.996 C26.574,17.563 26.542,17.638 26.933,17.634 C27.371,17.63 27.808,17.641 28.246,17.63 C28.43,17.625 28.489,17.688 28.492,17.872 C28.495,18.095 28.539,18.318 28.575,18.601 Z" id="Shape" fill="#FFFFFF" fill-rule="nonzero"></path>
            <path d="M24.199,16.752 C23.48,16.788 23.022,16.27 23.03,15.648 C23.039,15 23.51,14.55 24.195,14.549 C24.913,14.548 25.38,14.992 25.379,15.674 C25.377,16.316 24.9,16.752 24.199,16.752 Z" id="Path" fill="#FFE701"></path>
            <path d="M37.717,20.3 C38.084,20.3 38.45,20.298 38.817,20.301 C38.926,20.302 38.998,20.284 38.987,20.149 C38.91,19.143 38.175,18.697 37.347,18.962 C36.787,19.142 36.552,19.624 36.438,20.17 C36.409,20.309 36.504,20.301 36.594,20.301 C36.968,20.3 37.343,20.3 37.717,20.3 Z M38.698,21.803 C38.019,21.803 37.339,21.806 36.66,21.801 C36.493,21.8 36.417,21.819 36.482,22.025 C36.683,22.658 37.17,22.92 37.76,23.045 C38.574,23.216 39.373,23.08 40.161,22.877 C40.311,22.838 40.359,22.868 40.385,23.005 C40.456,23.38 40.526,23.754 40.607,24.126 C40.642,24.291 40.557,24.348 40.424,24.392 C39.624,24.657 38.803,24.766 37.963,24.749 C37.209,24.735 36.494,24.587 35.846,24.186 C35.056,23.698 34.611,22.974 34.444,22.076 C34.265,21.109 34.336,20.165 34.796,19.278 C35.395,18.121 36.358,17.519 37.657,17.447 C38.315,17.411 38.948,17.498 39.525,17.838 C40.181,18.225 40.588,18.811 40.81,19.525 C41.025,20.219 41.08,20.928 40.969,21.65 C40.943,21.816 40.844,21.801 40.736,21.801 C40.056,21.804 39.377,21.803 38.698,21.803 Z" id="Shape" fill="#FFFFFF" fill-rule="nonzero"></path>
            <path d="M41.792,21.597 C41.792,20.964 41.797,20.332 41.79,19.699 C41.783,19.06 41.771,18.42 41.748,17.781 C41.742,17.619 41.794,17.585 41.943,17.587 C42.435,17.595 42.927,17.598 43.418,17.585 C43.587,17.58 43.636,17.648 43.641,17.794 C43.649,18.075 43.659,18.355 43.671,18.636 C43.673,18.689 43.663,18.761 43.727,18.776 C43.799,18.792 43.802,18.715 43.825,18.669 C44.117,18.057 44.58,17.647 45.244,17.48 C45.49,17.419 45.741,17.445 45.99,17.449 C46.121,17.452 46.107,17.552 46.107,17.635 C46.109,18.197 46.103,18.76 46.111,19.321 C46.113,19.482 46.058,19.528 45.905,19.499 C45.521,19.425 45.143,19.45 44.783,19.612 C44.173,19.886 43.987,20.406 43.985,21.023 C43.981,22.131 43.978,23.241 43.989,24.349 C43.991,24.562 43.924,24.611 43.724,24.607 C43.155,24.595 42.584,24.596 42.015,24.606 C41.841,24.609 41.789,24.558 41.79,24.381 C41.795,23.455 41.792,22.526 41.792,21.597 Z" id="Path" fill="#FFFFFF"></path>
        </g>
    </g>
</svg>
